X: 1
T: Quindaro, The
M: 4/4
L: 1/8
R: hornpipe
K: Gmaj
|:gf|g2G2 G2BG|FADF G2Bc|dBed cBAG|FGAF D2gf|
g2G2 G2BG|FADF G2AB|cedc BAGF|G2B2G2:|
|:dc|BgBc d2cB|caAB c2BA|Bd ed cBAG|FAD2 D2ga|
bgfg dgfg|bgfg dgfg|edcB AGFA|G2B2G2:||
